X: 850
T: The Sporting Bachelor
B:O'Neill's 850
Z:Transcribed by Dan G. Petersen, dangp@post6.tele.dk
M:6/8
L:1/8
K:G
D|GBd (g2{a/g/}d)|ed^c d2B|{d}cBA BAG|AB^c d2D|
GBd (g2{a/g/}d)|ed^c d2B|cBA ABc|def g2:|
B|dcA ~B2G|dcA ~B2G|def {a}gfe|dcB A2B|
c2e efg|B2d dBG|Aag {g}fef|gba g2:|


